flaticon/gastronomy/pizza-4.svg

<svg xmlns="http://www.w3.org/2000/svg" width="32" height="32" viewBox="0 0 24 24">
    <path d="M9.46875 8.75C9.46875 9.257812 9.667969 9.738281 10.027344 10.097656 10.109375 10.179688 10.214844 10.21875 10.320312 10.21875 10.425781 10.21875 10.535156 10.179688 10.613281 10.097656 10.777344 9.9375 10.777344 9.675781 10.613281 9.511719 10.410156 9.308594 10.296875 9.039062 10.296875 8.75 10.296875 8.460938 10.410156 8.191406 10.613281 7.988281 11.355469 7.246094 11.355469 6.035156 10.613281 5.292969 10.453125 5.132812 10.191406 5.132812 10.027344 5.292969 9.867188 5.453125 9.867188 5.714844 10.027344 5.878906 10.449219 6.296875 10.449219 6.980469 10.027344 7.402344 9.667969 7.761719 9.46875 8.242188 9.46875 8.75zM4.964844 8.75C4.964844 9.257812 5.164062 9.738281 5.523438 10.097656 5.605469 10.179688 5.710938 10.21875 5.816406 10.21875 5.921875 10.21875 6.027344 10.179688 6.109375 10.097656 6.269531 9.9375 6.269531 9.675781 6.109375 9.511719 5.90625 9.308594 5.792969 9.039062 5.792969 8.75 5.792969 8.460938 5.90625 8.191406 6.109375 7.988281 6.851562 7.246094 6.851562 6.035156 6.109375 5.292969 5.949219 5.132812 5.6875 5.132812 5.523438 5.292969 5.363281 5.453125 5.363281 5.714844 5.523438 5.878906 5.945312 6.296875 5.945312 6.980469 5.523438 7.402344 5.164062 7.761719 4.964844 8.242188 4.964844 8.75zM7.402344 7.507812C7.402344 8.015625 7.601562 8.496094 7.960938 8.855469 8.039062 8.9375 8.148438 8.976562 8.253906 8.976562 8.359375 8.976562 8.464844 8.9375 8.546875 8.855469 8.707031 8.695312 8.707031 8.433594 8.546875 8.269531 8.339844 8.066406 8.230469 7.796875 8.230469 7.507812 8.230469 7.21875 8.339844 6.949219 8.546875 6.746094 9.289062 6.003906 9.289062 4.792969 8.546875 4.050781 8.382812 3.890625 8.121094 3.890625 7.960938 4.050781 7.796875 4.214844 7.796875 4.476562 7.960938 4.636719 8.378906 5.058594 8.378906 5.742188 7.960938 6.160156 7.601562 6.523438 7.402344 7 7.402344 7.507812zM5.792969 15.929688C4.863281 15.929688 4.136719 16.476562 4.136719 17.171875 4.136719 17.867188 4.863281 18.414062 5.792969 18.414062 6.722656 18.414062 7.449219 17.867188 7.449219 17.171875 7.449219 16.476562 6.722656 15.929688 5.792969 15.929688zM5.792969 17.585938C5.289062 17.585938 4.964844 17.339844 4.964844 17.171875 4.964844 17.003906 5.289062 16.757812 5.792969 16.757812 6.296875 16.757812 6.621094 17.003906 6.621094 17.171875 6.621094 17.339844 6.296875 17.585938 5.792969 17.585938zM7.035156 12.621094C6.105469 12.621094 5.378906 13.164062 5.378906 13.863281 5.378906 14.558594 6.105469 15.101562 7.035156 15.101562 7.960938 15.101562 8.691406 14.558594 8.691406 13.863281 8.691406 13.164062 7.960938 12.621094 7.035156 12.621094zM7.035156 14.277344C6.527344 14.277344 6.207031 14.03125 6.207031 13.863281 6.207031 13.691406 6.527344 13.449219 7.035156 13.449219 7.539062 13.449219 7.863281 13.691406 7.863281 13.863281 7.863281 14.03125 7.539062 14.277344 7.035156 14.277344zM11.171875 14.277344C12.101562 14.277344 12.828125 13.730469 12.828125 13.035156 12.828125 12.339844 12.101562 11.792969 11.171875 11.792969 10.246094 11.792969 9.515625 12.339844 9.515625 13.035156 9.515625 13.730469 10.246094 14.277344 11.171875 14.277344zM11.171875 12.621094C11.675781 12.621094 12 12.867188 12 13.035156 12 13.203125 11.675781 13.449219 11.171875 13.449219 10.667969 13.449219 10.34375 13.203125 10.34375 13.035156 10.34375 12.867188 10.667969 12.621094 11.171875 12.621094zM15.308594 14.691406C16.238281 14.691406 16.964844 14.144531 16.964844 13.449219 16.964844 12.75 16.238281 12.207031 15.308594 12.207031 14.382812 12.207031 13.65625 12.75 13.65625 13.449219 13.65625 14.144531 14.382812 14.691406 15.308594 14.691406zM15.308594 13.035156C15.816406 13.035156 16.136719 13.28125 16.136719 13.449219 16.136719 13.617188 15.816406 13.863281 15.308594 13.863281 14.804688 13.863281 14.484375 13.617188 14.484375 13.449219 14.484375 13.28125 14.804688 13.035156 15.308594 13.035156zM20.691406 15.101562C20.691406 14.40625 19.960938 13.863281 19.035156 13.863281 18.105469 13.863281 17.378906 14.40625 17.378906 15.101562 17.378906 15.800781 18.105469 16.34375 19.035156 16.34375 19.960938 16.34375 20.691406 15.800781 20.691406 15.101562zM19.035156 15.515625C18.527344 15.515625 18.207031 15.273438 18.207031 15.101562 18.207031 14.933594 18.527344 14.691406 19.035156 14.691406 19.539062 14.691406 19.863281 14.933594 19.863281 15.101562 19.863281 15.273438 19.539062 15.515625 19.035156 15.515625zM16.550781 16.34375C15.625 16.34375 14.898438 16.890625 14.898438 17.585938 14.898438 18.28125 15.625 18.828125 16.550781 18.828125 17.480469 18.828125 18.207031 18.28125 18.207031 17.585938 18.207031 16.890625 17.480469 16.34375 16.550781 16.34375zM16.550781 18C16.046875 18 15.722656 17.753906 15.722656 17.585938 15.722656 17.417969 16.046875 17.171875 16.550781 17.171875 17.058594 17.171875 17.378906 17.417969 17.378906 17.585938 17.378906 17.753906 17.058594 18 16.550781 18zM12 17.171875C11.070312 17.171875 10.34375 17.71875 10.34375 18.414062 10.34375 19.109375 11.070312 19.65625 12 19.65625 12.929688 19.65625 13.65625 19.109375 13.65625 18.414062 13.65625 17.71875 12.929688 17.171875 12 17.171875zM12 18.828125C11.496094 18.828125 11.171875 18.582031 11.171875 18.414062 11.171875 18.246094 11.496094 18 12 18 12.503906 18 12.828125 18.246094 12.828125 18.414062 12.828125 18.582031 12.503906 18.828125 12 18.828125zM10.015625 16.042969C9.847656 16.007812 9.683594 16.078125 9.59375 16.210938 9.351562 16.214844 9.128906 16.355469 9.023438 16.574219 8.730469 16.585938 8.476562 16.789062 8.414062 17.085938 8.367188 17.3125 8.507812 17.53125 8.734375 17.578125 8.761719 17.582031 8.789062 17.585938 8.820312 17.585938 8.953125 17.585938 9.082031 17.519531 9.15625 17.410156 9.398438 17.40625 9.621094 17.261719 9.726562 17.046875 10.015625 17.035156 10.273438 16.828125 10.335938 16.53125 10.382812 16.308594 10.238281 16.089844 10.015625 16.042969zM14.015625 16.160156C13.894531 15.949219 13.664062 15.835938 13.421875 15.832031 13.363281 15.734375 13.277344 15.652344 13.171875 15.59375 13.019531 15.511719 12.84375 15.492188 12.679688 15.546875 12.460938 15.613281 12.335938 15.84375 12.402344 16.0625 12.453125 16.226562 12.59375 16.335938 12.753906 16.351562 12.8125 16.457031 12.902344 16.542969 13.007812 16.601562 13.113281 16.660156 13.230469 16.679688 13.34375 16.679688 13.40625 16.777344 13.488281 16.859375 13.59375 16.917969 13.691406 16.96875 13.796875 16.996094 13.902344 16.996094 13.964844 16.996094 14.027344 16.984375 14.089844 16.964844 14.308594 16.898438 14.433594 16.667969 14.367188 16.449219 14.316406 16.285156 14.175781 16.175781 14.015625 16.160156zM11.21875 14.917969C11.097656 14.707031 10.871094 14.589844 10.625 14.589844 10.566406 14.492188 10.480469 14.410156 10.375 14.351562 10.222656 14.269531 10.046875 14.253906 9.882812 14.304688 9.664062 14.371094 9.539062 14.601562 9.605469 14.820312 9.65625 14.984375 9.796875 15.09375 9.957031 15.109375 10.015625 15.214844 10.105469 15.300781 10.210938 15.359375 10.316406 15.417969 10.433594 15.4375 10.546875 15.4375 10.609375 15.535156 10.691406 15.617188 10.796875 15.675781 10.894531 15.726562 10.996094 15.753906 11.101562 15.753906 11.167969 15.753906 11.230469 15.742188 11.292969 15.726562 11.511719 15.660156 11.632812 15.429688 11.566406 15.210938 11.519531 15.042969 11.378906 14.933594 11.21875 14.917969zM11.21875 14.917969"/>
    <path d="M 23.9375 19.488281 C 23.941406 19.421875 23.941406 19.355469 23.925781 19.289062 L 20.714844 11.023438 L 22.746094 2.789062 C 22.75 2.773438 22.746094 2.761719 22.746094 2.746094 C 22.75 2.726562 22.757812 2.710938 22.757812 2.691406 L 22.757812 1.449219 C 22.757812 1.21875 22.574219 1.035156 22.34375 1.035156 L 1.65625 1.035156 C 1.425781 1.035156 1.242188 1.21875 1.242188 1.449219 L 1.242188 2.691406 C 1.242188 2.917969 1.425781 3.101562 1.65625 3.101562 L 1.71875 3.101562 L 3.453125 10.746094 C 3.382812 10.816406 3.320312 10.902344 3.289062 11.007812 L 0.09375 19.234375 L 0.0742188 19.289062 C 0.0585938 19.367188 0.0585938 19.445312 0.0664062 19.519531 C 0.0273438 19.59375 0 19.671875 0 19.761719 L 0 22.308594 C 0 22.671875 0.296875 22.964844 0.65625 22.964844 L 23.34375 22.964844 C 23.703125 22.964844 24 22.671875 24 22.308594 L 24 19.707031 C 24 19.625 23.972656 19.554688 23.9375 19.488281 Z M 14.246094 19.242188 L 14.234375 19.242188 C 13.9375 19.242188 13.683594 19.449219 13.613281 19.746094 C 13.601562 19.800781 13.578125 19.851562 13.5625 19.902344 C 13.550781 19.929688 13.542969 19.960938 13.53125 19.992188 C 13.511719 20.03125 13.488281 20.066406 13.464844 20.105469 C 13.445312 20.140625 13.425781 20.175781 13.402344 20.210938 C 13.386719 20.234375 13.367188 20.253906 13.347656 20.277344 C 13.3125 20.320312 13.277344 20.367188 13.238281 20.40625 C 13.230469 20.417969 13.21875 20.425781 13.207031 20.433594 C 12.964844 20.660156 12.644531 20.820312 12.285156 20.875 C 12.191406 20.890625 12.097656 20.898438 12 20.898438 C 11.902344 20.898438 11.808594 20.890625 11.714844 20.875 C 11.351562 20.820312 11.027344 20.65625 10.785156 20.425781 C 10.777344 20.417969 10.769531 20.414062 10.761719 20.40625 C 10.71875 20.363281 10.683594 20.316406 10.648438 20.269531 C 10.628906 20.25 10.609375 20.230469 10.597656 20.210938 C 10.570312 20.171875 10.550781 20.132812 10.527344 20.09375 C 10.507812 20.058594 10.484375 20.027344 10.46875 19.992188 C 10.453125 19.957031 10.445312 19.917969 10.433594 19.878906 C 10.414062 19.835938 10.398438 19.792969 10.386719 19.746094 C 10.316406 19.449219 10.0625 19.242188 9.765625 19.242188 L 4.457031 19.242188 C 3.21875 18.441406 2.484375 16.945312 2.484375 15.929688 C 2.484375 13.464844 6.839844 11.378906 12 11.378906 C 17.160156 11.378906 21.515625 13.464844 21.515625 15.929688 C 21.515625 16.945312 20.78125 18.441406 19.542969 19.242188 Z M 4.035156 11.378906 L 6.417969 11.378906 C 5.246094 11.761719 4.238281 12.265625 3.457031 12.859375 Z M 20.542969 12.859375 C 19.761719 12.265625 18.753906 11.761719 17.582031 11.378906 L 19.964844 11.378906 Z M 22.160156 17.023438 L 23.023438 19.242188 L 20.828125 19.242188 C 21.480469 18.578125 21.929688 17.777344 22.160156 17.023438 Z M 2.070312 1.863281 L 21.929688 1.863281 L 21.929688 2.277344 L 13.625 2.277344 C 13.496094 2.277344 13.375 2.335938 13.296875 2.441406 C 13.21875 2.542969 13.191406 2.675781 13.226562 2.800781 C 13.238281 2.835938 13.242188 2.863281 13.242188 2.898438 C 13.242188 3.191406 12.816406 3.515625 12.207031 3.515625 C 11.597656 3.515625 11.171875 3.191406 11.171875 2.898438 C 11.171875 2.863281 11.175781 2.835938 11.1875 2.800781 C 11.222656 2.675781 11.195312 2.542969 11.117188 2.441406 C 11.039062 2.335938 10.917969 2.277344 10.789062 2.277344 L 2.070312 2.277344 Z M 10.363281 3.101562 C 10.488281 3.8125 11.253906 4.34375 12.207031 4.34375 C 13.160156 4.34375 13.925781 3.8125 14.050781 3.101562 L 21.816406 3.101562 L 19.980469 10.550781 L 4.257812 10.550781 L 2.566406 3.101562 Z M 1.839844 17.023438 C 2.070312 17.777344 2.519531 18.578125 3.171875 19.242188 L 0.976562 19.242188 Z M 23.171875 22.136719 L 0.828125 22.136719 L 0.828125 20.070312 L 9.617188 20.070312 C 9.910156 21.050781 10.871094 21.722656 12 21.722656 C 13.128906 21.722656 14.089844 21.050781 14.382812 20.070312 L 23.171875 20.070312 Z M 23.171875 22.136719"/>
</svg>

<svg xmlns="http://www.w3.org/2000/svg" width="32" height="32" viewBox="0 0 24 24">
    <path d="M9.469 8.75c0 .508.199.988.558 1.348a.41.41 0 0 0 .293.12c.106 0 .215-.038.293-.12a.41.41 0 0 0 0-.586 1.07 1.07 0 0 1-.316-.762c0-.29.113-.559.316-.762a1.91 1.91 0 0 0 0-2.695.417.417 0 0 0-.586 0 .417.417 0 0 0 0 .586 1.075 1.075 0 0 1 0 1.523c-.359.36-.558.84-.558 1.348zm0 0M4.965 8.75c0 .508.2.988.558 1.348a.41.41 0 0 0 .293.12.41.41 0 0 0 .293-.12.417.417 0 0 0 0-.586 1.07 1.07 0 0 1-.316-.762c0-.29.113-.559.316-.762a1.91 1.91 0 0 0 0-2.695.417.417 0 0 0-.586 0 .417.417 0 0 0 0 .586 1.075 1.075 0 0 1 0 1.523c-.359.36-.558.84-.558 1.348zm0 0M7.402 7.508c0 .508.2.988.559 1.347a.404.404 0 0 0 .293.122.41.41 0 0 0 .293-.122.417.417 0 0 0 0-.585 1.054 1.054 0 0 1-.317-.762c0-.29.11-.559.317-.762a1.91 1.91 0 0 0 0-2.695.417.417 0 0 0-.586 0 .41.41 0 0 0 0 .586 1.082 1.082 0 0 1 0 1.523c-.36.363-.559.84-.559 1.348zm0 0M5.793 15.93c-.93 0-1.656.547-1.656 1.242s.726 1.242 1.656 1.242c.93 0 1.656-.547 1.656-1.242s-.726-1.242-1.656-1.242zm0 1.656c-.504 0-.828-.246-.828-.414 0-.168.324-.414.828-.414s.828.246.828.414c0 .168-.324.414-.828.414zm0 0M7.035 12.621c-.93 0-1.656.543-1.656 1.242 0 .696.726 1.239 1.656 1.239.926 0 1.656-.543 1.656-1.239 0-.699-.73-1.242-1.656-1.242zm0 1.656c-.508 0-.828-.246-.828-.414 0-.172.32-.414.828-.414.504 0 .828.242.828.414 0 .168-.324.414-.828.414zm0 0M11.172 14.277c.93 0 1.656-.547 1.656-1.242s-.726-1.242-1.656-1.242c-.926 0-1.656.547-1.656 1.242s.73 1.242 1.656 1.242zm0-1.656c.504 0 .828.246.828.414 0 .168-.324.414-.828.414s-.828-.246-.828-.414c0-.168.324-.414.828-.414zm0 0M15.309 14.691c.93 0 1.656-.546 1.656-1.242 0-.699-.727-1.242-1.656-1.242-.926 0-1.653.543-1.653 1.242 0 .696.727 1.242 1.653 1.242zm0-1.656c.507 0 .828.246.828.414 0 .168-.32.414-.828.414-.504 0-.825-.246-.825-.414 0-.168.32-.414.825-.414zm0 0M20.691 15.102c0-.696-.73-1.239-1.656-1.239-.93 0-1.656.543-1.656 1.239 0 .699.726 1.242 1.656 1.242.926 0 1.656-.543 1.656-1.242zm-1.656.414c-.508 0-.828-.243-.828-.414 0-.168.32-.41.828-.41.504 0 .828.242.828.41 0 .171-.324.414-.828.414zm0 0M16.55 16.344c-.925 0-1.652.547-1.652 1.242s.727 1.242 1.653 1.242c.93 0 1.656-.547 1.656-1.242s-.727-1.242-1.656-1.242zm0 1.656c-.503 0-.827-.246-.827-.414 0-.168.324-.414.828-.414.508 0 .828.246.828.414 0 .168-.32.414-.828.414zm0 0M12 17.172c-.93 0-1.656.547-1.656 1.242s.726 1.242 1.656 1.242c.93 0 1.656-.547 1.656-1.242S12.93 17.172 12 17.172zm0 1.656c-.504 0-.828-.246-.828-.414 0-.168.324-.414.828-.414s.828.246.828.414c0 .168-.324.414-.828.414zm0 0M10.016 16.043a.406.406 0 0 0-.422.168.646.646 0 0 0-.57.363.644.644 0 0 0-.61.512.413.413 0 0 0 .32.492c.028.004.055.008.086.008a.41.41 0 0 0 .336-.176.653.653 0 0 0 .57-.363.652.652 0 0 0 .61-.516.414.414 0 0 0-.32-.488zm0 0M14.016 16.16a.685.685 0 0 0-.594-.328.667.667 0 0 0-.25-.238.62.62 0 0 0-.492-.047.414.414 0 0 0-.278.515.41.41 0 0 0 .352.29.65.65 0 0 0 .254.25.685.685 0 0 0 .336.078c.062.097.144.18.25.238a.67.67 0 0 0 .308.078.629.629 0 0 0 .188-.031.414.414 0 0 0 .277-.516.41.41 0 0 0-.351-.289zm0 0M11.219 14.918a.672.672 0 0 0-.594-.328.667.667 0 0 0-.25-.238.636.636 0 0 0-.492-.047.414.414 0 0 0-.278.515.41.41 0 0 0 .352.29.65.65 0 0 0 .254.25.685.685 0 0 0 .336.078.655.655 0 0 0 .746.29.412.412 0 0 0 .273-.517.399.399 0 0 0-.347-.293zm0 0"/>
    <path d="M23.938 19.488a.685.685 0 0 0-.012-.199l-3.211-8.266 2.031-8.234c.004-.016 0-.027 0-.043.004-.02.012-.035.012-.055V1.45a.412.412 0 0 0-.414-.414H1.656a.412.412 0 0 0-.414.414v1.242c0 .227.184.41.414.41h.063l1.734 7.645a.624.624 0 0 0-.164.262L.094 19.234l-.02.055a.765.765 0 0 0-.008.23.51.51 0 0 0-.066.243v2.547c0 .363.297.656.656.656h22.688c.36 0 .656-.293.656-.656v-2.602a.46.46 0 0 0-.063-.219zm-9.692-.246h-.012a.641.641 0 0 0-.62.504c-.012.055-.036.106-.052.156-.011.028-.019.059-.03.09-.02.04-.044.074-.067.113-.02.036-.04.07-.063.106-.015.023-.035.043-.054.066-.036.043-.07.09-.11.13-.008.011-.02.019-.031.027a1.731 1.731 0 0 1-.922.441 1.72 1.72 0 0 1-.57 0 1.723 1.723 0 0 1-.93-.45c-.008-.007-.015-.01-.023-.019a1.237 1.237 0 0 1-.114-.136.34.34 0 0 1-.05-.06c-.028-.038-.047-.077-.07-.116-.02-.035-.044-.067-.06-.102-.015-.035-.023-.074-.034-.113a.764.764 0 0 1-.047-.133.641.641 0 0 0-.621-.504H4.457c-1.238-.8-1.973-2.297-1.973-3.312 0-2.465 4.356-4.551 9.516-4.551s9.516 2.086 9.516 4.55c0 1.016-.735 2.512-1.973 3.313zM4.036 11.38h2.382c-1.172.383-2.18.887-2.961 1.48zm16.507 1.48c-.781-.593-1.79-1.097-2.961-1.48h2.383zm1.617 4.164l.863 2.22h-2.195a5.54 5.54 0 0 0 1.332-2.22zM2.07 1.863h19.86v.414h-8.305a.405.405 0 0 0-.328.164.408.408 0 0 0-.07.36.284.284 0 0 1 .015.097c0 .293-.426.618-1.035.618-.61 0-1.035-.325-1.035-.618 0-.035.004-.062.015-.097a.408.408 0 0 0-.07-.36.405.405 0 0 0-.328-.164H2.07zm8.293 1.239c.125.71.89 1.242 1.844 1.242.953 0 1.719-.532 1.844-1.242h7.765L19.98 10.55H4.258L2.566 3.1zM1.84 17.023a5.54 5.54 0 0 0 1.332 2.22H.977zm21.332 5.114H.828V20.07h8.79c.292.98 1.253 1.653 2.382 1.653 1.129 0 2.09-.672 2.383-1.653h8.789zm0 0"/>
</svg>
